images/03.svg

<svg width="95" height="54" viewBox="0 0 95 54" fill="none" xmlns="http://www.w3.org/2000/svg">
<path d="M24.9812 0.159998C30.0692 0.159998 34.3892 1.192 37.9412 3.256C41.4932 5.32 44.1932 8.344 46.0412 12.328C47.9132 16.312 48.8492 21.172 48.8492 26.908C48.8492 32.308 47.8412 37 45.8252 40.984C43.8332 44.944 41.0132 48.016 37.3652 50.2C33.7412 52.36 29.4572 53.44 24.5132 53.44C19.4492 53.44 15.1292 52.408 11.5532 50.344C8.00122 48.28 5.28922 45.256 3.41722 41.272C1.56922 37.288 0.645219 32.428 0.645219 26.692C0.645219 21.292 1.64122 16.612 3.63322 12.652C5.64922 8.668 8.48122 5.596 12.1292 3.436C15.7772 1.252 20.0612 0.159998 24.9812 0.159998ZM31.8572 28.6C31.8572 22.696 31.5812 17.98 31.0292 14.452C30.5012 10.924 29.6852 8.38 28.5812 6.82C27.5012 5.26 26.1212 4.48 24.4412 4.48C22.9052 4.48 21.6332 5.164 20.6252 6.532C19.6172 7.876 18.8612 10.06 18.3572 13.084C17.8772 16.084 17.6372 20.056 17.6372 25C17.6372 30.904 17.9012 35.62 18.4292 39.148C18.9812 42.676 19.7972 45.22 20.8772 46.78C21.9812 48.34 23.3732 49.12 25.0532 49.12C26.5892 49.12 27.8612 48.448 28.8692 47.104C29.8772 45.736 30.6212 43.552 31.1012 40.552C31.6052 37.528 31.8572 33.544 31.8572 28.6ZM72.247 25.864L71.023 24.676C71.503 24.532 72.019 24.412 72.571 24.316C73.123 24.22 73.711 24.148 74.335 24.1C74.959 24.028 75.619 23.992 76.315 23.992C79.747 23.992 82.759 24.52 85.351 25.576C87.943 26.632 89.959 28.144 91.399 30.112C92.863 32.056 93.595 34.384 93.595 37.096C93.595 40.408 92.743 43.288 91.039 45.736C89.359 48.184 86.947 50.08 83.803 51.424C80.683 52.768 76.951 53.44 72.607 53.44C68.407 53.44 64.915 52.936 62.131 51.928C59.347 50.92 57.259 49.528 55.867 47.752C54.499 45.976 53.815 43.948 53.815 41.668C53.815 39.364 54.571 37.48 56.083 36.016C57.595 34.528 59.467 33.784 61.699 33.784C64.123 33.784 65.935 34.42 67.135 35.692C68.359 36.94 68.971 38.608 68.971 40.696V44.548C68.971 45.94 69.271 47.128 69.871 48.112C70.495 49.096 71.371 49.588 72.499 49.588C73.627 49.588 74.587 49.252 75.379 48.58C76.171 47.884 76.783 46.792 77.215 45.304C77.647 43.792 77.863 41.812 77.863 39.364C77.863 35.716 77.287 33.112 76.135 31.552C75.007 29.992 73.447 29.212 71.455 29.212H68.863C67.879 29.212 67.147 28.996 66.667 28.564C66.187 28.108 65.947 27.472 65.947 26.656C65.947 26.032 66.079 25.48 66.343 25C66.631 24.52 67.135 23.968 67.855 23.344L83.875 9.412L84.307 13.876H65.227C64.219 13.876 63.439 14.056 62.887 14.416C62.335 14.752 61.963 15.316 61.771 16.108L61.051 18.952C60.883 19.648 60.559 20.212 60.079 20.644C59.623 21.052 58.951 21.256 58.063 21.256C57.199 21.256 56.491 21.028 55.939 20.572C55.387 20.092 55.159 19.372 55.255 18.412L56.551 4.948C56.647 3.916 57.067 3.1 57.811 2.5C58.555 1.9 59.551 1.6 60.799 1.6H90.067C91.531 1.6 92.575 1.78 93.199 2.14C93.823 2.5 94.135 3.076 94.135 3.868C94.135 4.396 93.931 4.996 93.523 5.668C93.139 6.34 92.311 7.264 91.039 8.44L72.247 25.864Z" fill="#FDD6BA"/>
</svg>

<svg width="95" height="54" fill="none" xmlns="http://www.w3.org/2000/svg"><path d="M24.981.16c5.088 0 9.408 1.032 12.96 3.096 3.552 2.064 6.252 5.088 8.1 9.072 1.872 3.984 2.808 8.844 2.808 14.58 0 5.4-1.008 10.092-3.024 14.076-1.992 3.96-4.812 7.032-8.46 9.216-3.624 2.16-7.908 3.24-12.852 3.24-5.064 0-9.384-1.032-12.96-3.096-3.552-2.064-6.264-5.088-8.136-9.072C1.57 37.288.645 32.428.645 26.692c0-5.4.996-10.08 2.988-14.04C5.65 8.668 8.481 5.596 12.13 3.436 15.777 1.252 20.061.16 24.981.16Zm6.876 28.44c0-5.904-.276-10.62-.828-14.148-.528-3.528-1.344-6.072-2.448-7.632-1.08-1.56-2.46-2.34-4.14-2.34-1.536 0-2.808.684-3.816 2.052-1.008 1.344-1.764 3.528-2.268 6.552-.48 3-.72 6.972-.72 11.916 0 5.904.264 10.62.792 14.148.552 3.528 1.368 6.072 2.448 7.632 1.104 1.56 2.496 2.34 4.176 2.34 1.536 0 2.808-.672 3.816-2.016 1.008-1.368 1.752-3.552 2.232-6.552.504-3.024.756-7.008.756-11.952Zm40.39-2.736-1.224-1.188c.48-.144.996-.264 1.548-.36.552-.096 1.14-.168 1.764-.216a17.29 17.29 0 0 1 1.98-.108c3.432 0 6.444.528 9.036 1.584 2.592 1.056 4.608 2.568 6.048 4.536 1.464 1.944 2.196 4.272 2.196 6.984 0 3.312-.852 6.192-2.556 8.64-1.68 2.448-4.092 4.344-7.236 5.688-3.12 1.344-6.852 2.016-11.196 2.016-4.2 0-7.692-.504-10.476-1.512-2.784-1.008-4.872-2.4-6.264-4.176-1.368-1.776-2.052-3.804-2.052-6.084 0-2.304.756-4.188 2.268-5.652 1.512-1.488 3.384-2.232 5.616-2.232 2.424 0 4.236.636 5.436 1.908 1.224 1.248 1.836 2.916 1.836 5.004v3.852c0 1.392.3 2.58.9 3.564.624.984 1.5 1.476 2.628 1.476 1.128 0 2.088-.336 2.88-1.008.792-.696 1.404-1.788 1.836-3.276.432-1.512.648-3.492.648-5.94 0-3.648-.576-6.252-1.728-7.812-1.128-1.56-2.688-2.34-4.68-2.34h-2.592c-.984 0-1.716-.216-2.196-.648-.48-.456-.72-1.092-.72-1.908 0-.624.132-1.176.396-1.656.288-.48.792-1.032 1.512-1.656l16.02-13.932.432 4.464h-19.08c-1.008 0-1.788.18-2.34.54-.552.336-.924.9-1.116 1.692l-.72 2.844c-.168.696-.492 1.26-.972 1.692-.456.408-1.128.612-2.016.612-.864 0-1.572-.228-2.124-.684-.552-.48-.78-1.2-.684-2.16l1.296-13.464c.096-1.032.516-1.848 1.26-2.448.744-.6 1.74-.9 2.988-.9h29.268c1.464 0 2.508.18 3.132.54.624.36.936.936.936 1.728 0 .528-.204 1.128-.612 1.8-.384.672-1.212 1.596-2.484 2.772L72.247 25.864Z" fill="#FDD6BA"/></svg>
